Pods/ProtonCore-UIFoundations/libraries/UIFoundations/Sources/Assets.xcassets/Images/IconSet/ic-folder-arrow-in.imageset/ic-folder-arrow-in.svg

<svg width="24" height="24" viewBox="0 0 24 24" fill="none" xmlns="http://www.w3.org/2000/svg">
<path fill-rule="evenodd" clip-rule="evenodd" d="M1.5 6C1.5 4.34315 2.84315 3 4.5 3H9C9.64911 3 10.2807 3.21053 10.8 3.6L13 5.25L19.5 5.25C21.1569 5.25 22.5 6.59315 22.5 8.25V18C22.5 19.6569 21.1569 21 19.5 21H4.5C2.84315 21 1.5 19.6569 1.5 18V15H3V18C3 18.8284 3.67157 19.5 4.5 19.5H19.5C20.3284 19.5 21 18.8284 21 18V8.25C21 7.42157 20.3284 6.75 19.5 6.75H13C12.6754 6.75 12.3596 6.64473 12.1 6.45L9.9 4.8C9.64036 4.60527 9.32456 4.5 9 4.5H4.5C3.67157 4.5 3 5.17157 3 6V10.5H1.5V6ZM11.6893 13.5H1.5V12H11.6893L9.96967 10.2803C9.67678 9.98744 9.67678 9.51256 9.96967 9.21967C10.2626 8.92678 10.7374 8.92678 11.0303 9.21967L13.8182 12.0075C14.2282 12.4176 14.2282 13.0824 13.8182 13.4925L11.0303 16.2803C10.7374 16.5732 10.2626 16.5732 9.96967 16.2803C9.67678 15.9874 9.67678 15.5126 9.96967 15.2197L11.6893 13.5Z" fill="#0C0C14"/>
</svg>

<svg xmlns="http://www.w3.org/2000/svg" width="24" height="24" viewBox="0 0 24 24">
  <g class="ic-folder-arrow-in">
    <path fill-rule="evenodd" d="M1.5 6a3 3 0 0 1 3-3H9a3 3 0 0 1 1.8.6L13 5.25h6.5a3 3 0 0 1 3 3V18a3 3 0 0 1-3 3h-15a3 3 0 0 1-3-3v-3H3v3a1.5 1.5 0 0 0 1.5 1.5h15A1.5 1.5 0 0 0 21 18V8.25a1.5 1.5 0 0 0-1.5-1.5H13a1.5 1.5 0 0 1-.9-.3L9.9 4.8a1.5 1.5 0 0 0-.9-.3H4.5A1.5 1.5 0 0 0 3 6v4.5H1.5V6Zm10.19 7.5H1.5V12h10.19l-1.72-1.72a.75.75 0 1 1 1.06-1.06l2.788 2.787c.41.41.41 1.075 0 1.486L11.03 16.28a.75.75 0 1 1-1.06-1.06l1.72-1.72Z" class="Icon"/>
  </g>
</svg>
